X:337
T:North of the Grampians, The
C:Captain Fraser
R:Strathspey
M:C
%%printtempo 0
Q:120
K:Am
F|\
E>FG>A G<EE>c| (E/F/G) G>c c<ed>c| E>FG>A G<cG>E| E>DB,<G, (B,/C/D) F:|
f|\
e>c (e/f/)g e<cc>f| e<cc>f ((3efg) ((3fga)| e>c ((3efg) e<cc>e| f>dB>G B/c/d f2|
e>c (e/f/)g e<cc>f| e<cc>f ((3efg) ((3fga)| ((3gfe) ((3dcB) ((3cBA) ((3GFE)| F>DB,<G, B,CD [FB,]|]
